X: 31633
T: Paper Bird, The
R: reel
M: 4/4
K: Bminor
|:Bcde f2 ef|Bcde afgf|Bcde fegf|1 efcd ~B3 F:|2 efcd B3 d||
|:dBde f2 e/f/a|dBfg f2 ec|dBde fe ab|1 fede ~f3 d:|2 fede ~f3a||
|:b2 ab fefa|fabf edef|1 b2 ab fede|fgfe ~f3 a:|2 b2 ab fede|fg||

